bs-navigator/img/icons/advant-03.svg

<svg width="41" height="41" viewBox="0 0 41 41" fill="none" xmlns="http://www.w3.org/2000/svg">
<path d="M9.11292 6.75024C9.11292 7.56274 9.55042 8.00024 10.3629 8.00024C11.2379 8.00024 11.6129 8.43774 11.6129 9.31274C11.6129 11.3127 13.3629 14.5627 16.1129 17.6877L18.6129 20.5002L16.1129 23.3127C13.3629 26.4377 11.6129 29.6877 11.6129 31.6877C11.6129 32.5627 11.2379 33.0002 10.3629 33.0002C9.55042 33.0002 9.11292 33.4377 9.11292 34.2502C9.11292 35.4377 9.55042 35.5002 20.3629 35.5002C31.1754 35.5002 31.6129 35.4377 31.6129 34.2502C31.6129 33.4377 31.1754 33.0002 30.3629 33.0002C29.4879 33.0002 29.1129 32.5627 29.1129 31.6877C29.1129 29.6877 27.3629 26.4377 24.6129 23.3127L22.1129 20.5002L24.6129 17.6877C27.3629 14.5627 29.1129 11.3127 29.1129 9.31274C29.1129 8.43774 29.4879 8.00024 30.3629 8.00024C31.1754 8.00024 31.6129 7.56274 31.6129 6.75024C31.6129 5.56274 31.1754 5.50024 20.3629 5.50024C9.55042 5.50024 9.11292 5.56274 9.11292 6.75024ZM26.6129 8.93774C26.6129 9.43774 26.3004 10.5627 25.8629 11.4377C25.1754 12.9377 24.9254 13.0002 20.3629 13.0002C15.8004 13.0002 15.5504 12.9377 14.8629 11.4377C13.3629 8.12524 13.6129 8.00024 20.3629 8.00024C25.4254 8.00024 26.6129 8.18774 26.6129 8.93774ZM21.8629 17.0627C21.3004 17.9377 20.6129 18.6252 20.3629 18.6252C20.1129 18.6252 19.4254 17.9377 18.8629 17.0627L17.8629 15.5002H20.3629H22.8629L21.8629 17.0627ZM23.4254 25.9377C26.0504 29.5002 27.1129 32.0627 26.3004 32.8752C26.0504 33.1252 25.6754 32.9377 25.5504 32.5002C24.8004 30.5002 21.1754 25.8127 20.3629 25.8127C19.5504 25.8127 15.9254 30.5002 15.1754 32.5002C14.6754 33.8752 13.9254 32.5002 14.3629 30.9377C14.7379 29.3752 19.6754 22.3752 20.3629 22.3752C20.6129 22.3752 21.9254 23.9377 23.4254 25.9377ZM21.9254 31.1252L22.9254 33.0002H20.3629H17.8004L18.8004 31.1252C19.3629 30.0627 20.0504 29.2502 20.3629 29.2502C20.6754 29.2502 21.3629 30.0627 21.9254 31.1252Z" fill="#698157"/>
</svg>

<svg width="41" height="41" fill="none" xmlns="http://www.w3.org/2000/svg"><path d="M9.113 6.75c0 .813.437 1.25 1.25 1.25.875 0 1.25.438 1.25 1.313 0 2 1.75 5.25 4.5 8.375l2.5 2.812-2.5 2.813c-2.75 3.125-4.5 6.375-4.5 8.375 0 .875-.375 1.312-1.25 1.312-.813 0-1.25.438-1.25 1.25 0 1.188.437 1.25 11.25 1.25 10.812 0 11.25-.062 11.25-1.25 0-.812-.438-1.25-1.25-1.25-.875 0-1.25-.437-1.25-1.312 0-2-1.75-5.25-4.5-8.375l-2.5-2.813 2.5-2.812c2.75-3.125 4.5-6.375 4.5-8.375 0-.875.375-1.313 1.25-1.313.812 0 1.25-.437 1.25-1.25 0-1.187-.438-1.25-11.25-1.25-10.813 0-11.25.063-11.25 1.25zm17.5 2.188c0 .5-.313 1.625-.75 2.5-.688 1.5-.938 1.562-5.5 1.562-4.563 0-4.813-.062-5.5-1.562-1.5-3.313-1.25-3.438 5.5-3.438 5.062 0 6.25.188 6.25.938zm-4.75 8.125c-.563.875-1.25 1.562-1.5 1.562s-.938-.687-1.5-1.562l-1-1.563h5l-1 1.563zm1.562 8.875c2.625 3.562 3.688 6.125 2.875 6.937-.25.25-.625.063-.75-.375-.75-2-4.375-6.687-5.187-6.687-.813 0-4.438 4.687-5.188 6.687-.5 1.375-1.25 0-.812-1.562.375-1.563 5.312-8.563 6-8.563.25 0 1.562 1.563 3.062 3.563zm-1.5 5.187l1 1.875H17.8l1-1.875c.563-1.062 1.25-1.875 1.563-1.875.312 0 1 .813 1.562 1.875z" fill="#698157"/></svg>
